X: 16
T: The Irish Girl
O: "In Rosina"
%R: hornpipe
B: "The Hibernian Muse" p.10 #2 - p.11 #1
F: http://imslp.org/wiki/The_Hibernian_Muse_%28Various%29
Z: 2015 John Chambers <jc:trillian.mit.edu>
P: No. XVI.
M: C
L: 1/8
K: D
% - - - - - - - - - - - - - - - - - - - - - - - - - - - - -
V: 1
d>c |\
(B>c)AA F>FDF | (G>A)EF D2d>c |\
(B>c)AA F>FDF | G>B(TE>F) D3 |] F/G/ |\
AF (AB/c/) ddBd | ce(A^G) A3 (F/G/) |
AF (AB/c/) ddBd | cecA {G}HF2 d>c |\
(B>c)AA F>FDF | G>B(E>F) D2d>c |\
(B>c)AA F>FDF | GBTE>F D2 |]
% - - - - - - - - - - - - - - - - - - - - - - - - - - - - -
V: 2 clef=bass middle=d
z2 |\
g2a2 d'2d2 | g2a2 d2d2 |\
g2a2 d'2d2 | g2a2 d3 |] z |\
d2d'2 b2^g2 | a2e2 A3z |
d2d'2 b2^g2 | a2A2 Hd2 b>a |\
g2a2 d'2d2 | g2a2 d2b>a |\
g2a2 d'2d2 | g2a2 d2 |]

%%sep 2 1 500
%%sep 1 1 500

